X: 1243
T: Gordon Castle.   a Reel.
%R: reel
B: Niel Gow & Sons "Complete Repository" v.1 p.24 #3 (and top staff of p.25)
Z: 2021 John Chambers <jc:trillian.mit.edu>
M: C
L: 1/8
K: A
% - - - - - - - - - -
% Voice 1 formatted for proofreading.
V: 1 staves=2
f | e>Ac>A B/B/B Tf2 | e>Ac>A eAe>c | d<fTe>c B/B/B Tf2 | (e/d/).c/.B/ Ac ~e3 :| f | e>ca>c B/B/B Tf2 | e>ca>c ecef |
e>ca>c B/B/B Tf2 || (e/d/c/B/) ce e2-e>f || e>cac B/B/B Tf2 | e>ca>c e>fab | a/g/f/e/ a>c B/B/B Tf2 | (e/d/c/B/) A>c e2e |]
% - - - - - - - - - -
% Voice 2 preserves the book's staff layout.
V: 2 clef=bass middle=d
z | a2a2 b2b2 | a2a2 a2a2 | d'2c'2 b2b2 | a2e2 A2A :| z | a2a2 b2b2 | a2a2 a2a2 |
a2a2 b2b2 | a2e2 A2A2 || a2a2 b2b2 | a2a2 a2a2 | a2a2 b2b2 | a2e2 A2A |]


